public/tenants/nitrosb/logo.svg

<svg xmlns="http://www.w3.org/2000/svg" width="770.90002" height="998.63668" viewBox="0 0 770.90002 998.63668"><defs><style>.a{fill:#742b83;}.b{fill:#e12029;}.c{fill:#f48c1f;}.d{fill:#fceb00;}.e{fill:#0a8043;}.f{fill:#465eae;}</style></defs><path class="a" d="M503.2,909.5a41.1,41.1,0,1,0,41.1-41.1,41.09859,41.09859,0,0,0-41.1,41.1ZM241.3,869.3H208.8V993.4H162.7V825.6l46.1.1H349.3l58.4.1a55.91371,55.91371,0,0,1,55.4,47.1,88.87627,88.87627,0,1,1-7.9,39.6,58.41,58.41,0,0,1-17.5,17.5l-4.4,2.7,61.3,60.9H440.5L367.4,920c34.3-12.7,44.9-21,44.9-32.5a17.948,17.948,0,0,0-17.7-18.1H367l.1,123.9H320.8V869.3H287.3V993.4H241.4V869.3Zm-86.7-43.6v167.7l-108.6-108v108H0V826.1l46,.1,59.7,60V825.7h48.9Z" transform="translate(0 0)"/><polygon class="b" points="94.2 161.833 94.2 94.2 676.8 94.2 676.8 161.833 770.9 161.833 770.9 0 0 0 0 161.833 94.2 161.833"/><rect class="c" x="458.5" y="169.70001" width="127.79999" height="153.96667"/><polygon class="c" points="182.9 323.667 454.49 323.667 302.8 171.1 182.9 170.8 182.9 323.667"/><rect class="c" y="161.83331" width="94.20001" height="161.83337"/><rect class="c" x="676.79999" y="161.83331" width="94.10004" height="161.83337"/><polygon class="d" points="586.3 323.667 458.5 323.667 458.5 327.7 454.49 323.667 182.9 323.667 182.9 485.5 302.8 485.5 302.8 325.5 463.822 485.5 586.3 485.5 586.3 323.667"/><rect class="d" y="323.66669" width="94.20001" height="161.83331"/><rect class="d" x="676.79999" y="323.66669" width="94.10004" height="161.83331"/><rect class="e" x="182.90002" y="485.5" width="119.89996" height="121.70001"/><polygon class="e" points="463.822 485.5 586.3 607.2 586.3 485.5 463.822 485.5"/><rect class="e" y="485.5" width="94.20001" height="161.83337"/><rect class="e" x="676.79999" y="485.5" width="94.10004" height="161.83337"/><polygon class="a" points="770.9 809.167 608.04 809.167 770.9 971 770.9 809.167"/><polygon class="f" points="398 687.7 94.2 687.7 94.2 647.333 0 647.333 0 781.8 492.1 781.8 398 687.7"/><polygon class="f" points="770.9 647.333 676.8 647.333 676.8 744.7 619.4 687.7 485.4 687.7 580.2 781.8 580.5 781.8 608.04 809.167 770.9 809.167 770.9 647.333"/></svg>

<?xml version="1.0" encoding="utf-8"?>
<!-- Generator: Adobe Illustrator 23.0.2, SVG Export Plug-In . SVG Version: 6.00 Build 0)  -->
<svg version="1.1" id="Ebene_1-1484525896" xmlns="http://www.w3.org/2000/svg" xmlns:xlink="http://www.w3.org/1999/xlink" x="0px"
	 y="0px" viewBox="0 0 770.9 998.5" style="enable-background:new 0 0 770.9 998.5;" xml:space="preserve">
<title>Nitro Snowboard Company</title>
<path d="M586.3,169.7v437.5L302.8,325.5v281.7H182.9V170.8l119.9,0.3l155.7,156.6V169.7H586.3z"/>
<polygon points="0,0 0,781.8 492.1,781.8 398,687.7 94.2,687.7 94.2,94.2 676.8,94.2 676.8,744.7 619.4,687.7 485.4,687.7 
	580.2,781.8 580.5,781.8 770.9,971 770.9,0 "/>
<path d="M503.2,909.5c0,22.7,18.4,41.1,41.1,41.1c22.7,0,41.1-18.4,41.1-41.1c0-22.7-18.4-41.1-41.1-41.1
	C521.6,868.4,503.2,886.8,503.2,909.5C503.2,909.5,503.2,909.5,503.2,909.5z M241.3,869.3h-32.5v124.1h-46.1V825.6l46.1,0.1h140.5
	l58.4,0.1c27.5-0.1,51.1,19.9,55.4,47.1c20.2-44.8,73-64.8,117.8-44.5c44.8,20.2,64.8,73,44.5,117.8c-20.2,44.8-73,64.8-117.8,44.5
	c-30.9-14-51.2-44.3-52.4-78.2c-4.5,7-10.5,13-17.5,17.5l-4.4,2.7l61.3,60.9h-54.1L367.4,920c34.3-12.7,44.9-21,44.9-32.5
	c0.1-9.9-7.9-18-17.7-18.1c-0.1,0-0.2,0-0.3,0H367l0.1,123.9h-46.3V869.3h-33.5v124.1h-45.9V869.3z M154.6,825.7v167.7L46,885.4v108
	H0V826.1l46,0.1l59.7,60v-60.5H154.6z"/>
</svg>
